X:6416
T:TAILTDL5- The Chevalier's Muster-Roll
O:england
S:James Hogg's 'Jacobite Relics', I, p. 151, 1819
Q:1/4=120
L:1/8
M:C
K:D
G/2 G3/2 B G c2 G E|G/2 G3/2 B G A2F D|\
G/2 G3/2 B G (cA) B G|A c B d A2 F D||\
=c c G E E c G E|=c c G E D A F D|\
=c c G E E c G E|A c B d A2F D|]


